docs/resources/src/mediawiki.widgets/images/page-existing-rtl.svg

<?xml version="1.0" encoding="UTF-8"?>
<svg xmlns="http://www.w3.org/2000/svg" width="24" height="24" viewBox="0 0 24 24">
    <path d="m 12,12 -5,0 0,-7 5,0 z m 5,3 0,1 -10,0 0,-1 m 0,-1 0,-1 10,0 0,1 m 0,4 -10,0 0,-1 10,0 z m -4,-11 4,0 0,1 -4,0 z m 0,3 0,-1 4,0 0,1 m 0,1 0,1 -4,0 0,-1 m 0,-6 4,0 0,1 -4,0 z M 19,3 5,3 5,21 15.308,21 C 17.398,21 19,19.373 19,17.25 z"/>
</svg>

<?xml version="1.0" encoding="UTF-8"?>
<svg xmlns="http://www.w3.org/2000/svg" width="24" height="24" viewBox="0 0 24 24">
	<path d="M12 12H7V5h5zm5 3v1H7v-1m0-1v-1h10v1m0 4H7v-1h10zM13 7h4v1h-4zm0 3V9h4v1m0 1v1h-4v-1m0-6h4v1h-4zm6-2H5v18h10.308C17.398 21 19 19.373 19 17.25z"/>
</svg>
